X:25
T:Yann's Jig
I:last changed 14/2/2016
F:http://www.campin.me.uk/Music/Edinbal.abc
M:6/8
L:1/8
K:AMin
E2A A2G|E2E DCD|E2A A2B|cAc BGB|
E2A A2G|E2E DCD|E2A ABc|BGB A3:|
e2e efe|dcB A2B|cAA ABc|dBB Bcd|
e2e efe|dcB A2B|cdc BAG|A3- A3:|

